assets/svg/tray-indicator-play-g1.svg

<?xml version="1.0" encoding="UTF-8" standalone="no"?>
<svg
   width="110.00002"
   height="110"
   viewBox="0 0 29.104173 29.104166"
   version="1.1"
   id="svg8"
   inkscape:version="1.2.2 (b0a8486541, 2022-12-01)"
   sodipodi:docname="tray-indicator-play-g1.svg"
   xmlns:inkscape="http://www.inkscape.org/namespaces/inkscape"
   xmlns:sodipodi="http://sodipodi.sourceforge.net/DTD/sodipodi-0.dtd"
   xmlns:xlink="http://www.w3.org/1999/xlink"
   xmlns="http://www.w3.org/2000/svg"
   xmlns:svg="http://www.w3.org/2000/svg"
   xmlns:rdf="http://www.w3.org/1999/02/22-rdf-syntax-ns#"
   xmlns:cc="http://creativecommons.org/ns#"
   xmlns:dc="http://purl.org/dc/elements/1.1/">
  <defs
     id="defs2">
    <linearGradient
       inkscape:collect="always"
       xlink:href="#linearGradient2030"
       id="linearGradient2066"
       gradientUnits="userSpaceOnUse"
       gradientTransform="matrix(1.098034,0,0,1.0981512,-28.979449,155.24762)"
       x1="71.312096"
       y1="14.292992"
       x2="36.901596"
       y2="78.063347" />
    <linearGradient
       id="linearGradient2030"
       inkscape:collect="always">
      <stop
         id="stop2026"
         offset="0"
         style="stop-color:#f43cdd;stop-opacity:0.99607843" />
      <stop
         id="stop2028"
         offset="1"
         style="stop-color:#d0c068;stop-opacity:1" />
    </linearGradient>
    <linearGradient
       inkscape:collect="always"
       xlink:href="#linearGradient2030-0"
       id="linearGradient2066-5"
       gradientUnits="userSpaceOnUse"
       gradientTransform="matrix(1.098034,0,0,1.0981512,-28.979451,155.24763)"
       x1="69.820984"
       y1="16.022331"
       x2="55.546982"
       y2="36.762196" />
    <linearGradient
       id="linearGradient2030-0"
       inkscape:collect="always">
      <stop
         id="stop2026-3"
         offset="0"
         style="stop-color:#c0c0c0;stop-opacity:0.99607843;" />
      <stop
         id="stop2028-6"
         offset="1"
         style="stop-color:#858585;stop-opacity:1;" />
    </linearGradient>
  </defs>
  <sodipodi:namedview
     id="base"
     pagecolor="#212121"
     bordercolor="#666666"
     borderopacity="1.0"
     inkscape:pageopacity="0"
     inkscape:pageshadow="2"
     inkscape:zoom="3.959798"
     inkscape:cx="-45.078057"
     inkscape:cy="50.633896"
     inkscape:document-units="mm"
     inkscape:current-layer="layer1"
     showgrid="false"
     inkscape:pagecheckerboard="false"
     fit-margin-top="0"
     fit-margin-left="0"
     fit-margin-right="0"
     fit-margin-bottom="0"
     units="px"
     inkscape:window-width="1666"
     inkscape:window-height="738"
     inkscape:window-x="26"
     inkscape:window-y="23"
     inkscape:window-maximized="0"
     inkscape:document-rotation="0"
     inkscape:showpageshadow="2"
     inkscape:deskcolor="#212121" />
  <metadata
     id="metadata5">
    <rdf:RDF>
      <cc:Work
         rdf:about="">
        <dc:format>image/svg+xml</dc:format>
        <dc:type
           rdf:resource="http://purl.org/dc/dcmitype/StillImage" />
      </cc:Work>
    </rdf:RDF>
  </metadata>
  <g
     inkscape:label="Layer 1"
     inkscape:groupmode="layer"
     id="layer1"
     transform="translate(-22.868851,-174.73938)">
    <ellipse
       inkscape:export-ydpi="28.54953"
       inkscape:export-xdpi="28.54953"
       inkscape:export-filename="/home/kai/Tauon/dev/assets/1.25x/v4-a.png"
       style="display:inline;fill:url(#linearGradient2066);fill-opacity:1;stroke:none;stroke-width:2.92119;stroke-linecap:butt;stroke-linejoin:miter;stroke-miterlimit:9.5;stroke-dasharray:none;stroke-opacity:1;font-variation-settings:normal;opacity:1;vector-effect:none;stroke-dashoffset:0;-inkscape-stroke:none;stop-color:#000000;stop-opacity:1"
       id="circle2054"
       cx="37.418373"
       cy="189.29033"
       rx="13.383132"
       ry="13.384562" />
    <ellipse
       inkscape:export-ydpi="28.54953"
       inkscape:export-xdpi="28.54953"
       inkscape:export-filename="/home/kai/Tauon/dev/assets/1.25x/v4-a.png"
       style="display:inline;fill:url(#linearGradient2066-5);fill-opacity:1;stroke:none;stroke-width:2.92119;stroke-linecap:butt;stroke-linejoin:miter;stroke-miterlimit:9.5;stroke-dasharray:none;stroke-opacity:1"
       id="circle2054-1"
       cx="37.418373"
       cy="189.29033"
       rx="13.383132"
       ry="13.384562" />
    <ellipse
       style="display:inline;fill:#313131;fill-opacity:1;stroke:none;stroke-width:0.94436;stroke-linecap:butt;stroke-linejoin:miter;stroke-miterlimit:9.5;stroke-dasharray:none;stroke-opacity:1"
       id="circle2056"
       cx="37.418373"
       cy="189.29033"
       inkscape:export-filename="/home/kai/Tauon/dev/assets/1.25x/v4-a.png"
       inkscape:export-xdpi="28.54953"
       inkscape:export-ydpi="28.54953"
       rx="4.6428323"
       ry="4.6433277" />
    <ellipse
       inkscape:export-ydpi="28.54953"
       inkscape:export-xdpi="28.54953"
       inkscape:export-filename="/home/kai/Tauon/dev/assets/1.25x/v4-a.png"
       style="display:inline;fill:#ffffff;fill-opacity:1;stroke:none;stroke-width:2.92119;stroke-linecap:butt;stroke-linejoin:miter;stroke-miterlimit:9.5;stroke-dasharray:none;stroke-opacity:1"
       id="circle2058"
       cx="37.418373"
       cy="189.29033"
       rx="0.78012902"
       ry="0.78021222" />
    <path
       inkscape:export-ydpi="28.54953"
       inkscape:export-xdpi="28.54953"
       inkscape:export-filename="/home/kai/Tauon/dev/assets/1.25x/v4-a.png"
       d="m 46.75703,189.43707 a 9.3386574,9.339654 0 0 1 -5.377204,8.4577"
       sodipodi:end="1.1327187"
       sodipodi:start="0"
       sodipodi:ry="9.339654"
       sodipodi:rx="9.3386574"
       sodipodi:cy="189.43707"
       sodipodi:cx="37.418373"
       sodipodi:type="arc"
       id="path2060"
       style="display:inline;fill:none;fill-opacity:1;stroke:#ffffff;stroke-width:5.32974;stroke-linecap:butt;stroke-linejoin:miter;stroke-miterlimit:12.4;stroke-dasharray:none;stroke-opacity:0.376289"
       sodipodi:arc-type="arc"
       sodipodi:open="true" />
    <path
       inkscape:export-ydpi="28.54953"
       inkscape:export-xdpi="28.54953"
       inkscape:export-filename="/home/kai/Tauon/dev/assets/1.25x/v4-a.png"
       transform="scale(-1)"
       style="display:inline;fill:none;fill-opacity:1;stroke:#ffffff;stroke-width:5.32974;stroke-linecap:butt;stroke-linejoin:miter;stroke-miterlimit:12.4;stroke-dasharray:none;stroke-opacity:0.376289"
       id="path2062"
       sodipodi:type="arc"
       sodipodi:cx="-37.358078"
       sodipodi:cy="-189.25957"
       sodipodi:rx="9.3386574"
       sodipodi:ry="9.339654"
       sodipodi:start="0"
       sodipodi:end="1.1327187"
       d="m -28.019421,-189.25957 a 9.3386574,9.339654 0 0 1 -5.377204,8.4577"
       sodipodi:arc-type="arc"
       sodipodi:open="true" />
    <path
       style="display:inline;opacity:0.187;fill:#fef2fd;fill-opacity:1;stroke:none;stroke-width:2.92119;stroke-linecap:butt;stroke-linejoin:miter;stroke-miterlimit:9.5;stroke-dasharray:none;stroke-opacity:1"
       d="m 37.42275,175.91295 a 13.383133,13.384562 0 0 0 -13.383276,13.3847 13.383133,13.384562 0 0 0 0.0076,0.21509 13.383133,13.384562 0 0 1 13.375897,-13.23262 13.383133,13.384562 0 0 1 13.375912,13.16963 13.383133,13.384562 0 0 0 0.0077,-0.1521 13.383133,13.384562 0 0 0 -13.383281,-13.3847 z"
       id="circle2038"
       inkscape:connector-curvature="0"
       inkscape:export-filename="/home/kai/Tauon/dev/assets/1.25x/v4-a.png"
       inkscape:export-xdpi="28.54953"
       inkscape:export-ydpi="28.54953" />
    <path
       style="display:inline;fill:#000000;fill-opacity:0.0912281;stroke:none;stroke-width:2.92119;stroke-linecap:butt;stroke-linejoin:miter;stroke-miterlimit:9.5;stroke-dasharray:none;stroke-opacity:1"
       d="m 50.793062,189.05362 a 13.383133,13.384562 0 0 1 -13.374685,13.21565 13.383133,13.384562 0 0 1 -13.374687,-13.14602 13.383133,13.384562 0 0 0 -0.0085,0.16936 13.383133,13.384562 0 0 0 13.383137,13.38456 13.383133,13.384562 0 0 0 13.383139,-13.38456 13.383133,13.384562 0 0 0 -0.0085,-0.23899 z"
       id="circle823"
       inkscape:connector-curvature="0"
       inkscape:export-filename="/home/kai/Tauon/dev/assets/1.25x/v4-a.png"
       inkscape:export-xdpi="28.54953"
       inkscape:export-ydpi="28.54953" />
    <g
       id="g843"
       inkscape:transform-center-x="-1.6993199"
       inkscape:transform-center-y="-2.8588219e-05"
       transform="matrix(1.2239631,0,0,1.1261891,-11.221533,-22.452113)"
       style="opacity:1">
      <path
         style="color:#000000;font-style:normal;font-variant:normal;font-weight:normal;font-stretch:normal;font-size:medium;line-height:normal;font-family:sans-serif;font-variant-ligatures:normal;font-variant-position:normal;font-variant-caps:normal;font-variant-numeric:normal;font-variant-alternates:normal;font-variant-east-asian:normal;font-feature-settings:normal;font-variation-settings:normal;text-indent:0;text-align:start;text-decoration:none;text-decoration-line:none;text-decoration-style:solid;text-decoration-color:#000000;letter-spacing:normal;word-spacing:normal;text-transform:none;writing-mode:lr-tb;direction:ltr;text-orientation:mixed;dominant-baseline:auto;baseline-shift:baseline;text-anchor:start;white-space:normal;shape-padding:0;shape-margin:0;inline-size:0;clip-rule:nonzero;display:inline;overflow:visible;visibility:visible;isolation:auto;mix-blend-mode:normal;color-interpolation:sRGB;color-interpolation-filters:linearRGB;solid-color:#000000;solid-opacity:1;vector-effect:none;fill:#424242;fill-opacity:1;fill-rule:nonzero;stroke:none;stroke-width:2.12095;stroke-linecap:butt;stroke-linejoin:miter;stroke-miterlimit:4;stroke-dasharray:none;stroke-dashoffset:0;stroke-opacity:1.0;paint-order:markers stroke fill;color-rendering:auto;image-rendering:auto;shape-rendering:auto;text-rendering:auto;enable-background:accumulate;stop-color:#000000;stop-opacity:1;"
         d="M 41.777344 175.2832 C 41.533697 175.21775 41.281791 175.01046 40.650391 175.375 C 40.018987 175.73954 40.072953 176.06291 40.007812 176.30664 C 39.942672 176.55037 39.908131 176.79174 39.878906 177.06055 C 39.820457 177.59817 39.795979 178.23193 39.785156 178.87305 C 39.763511 180.15528 39.800781 181.52082 39.800781 181.69336 C 39.800781 181.8659 39.763511 183.23144 39.785156 184.51367 C 39.795979 185.15479 39.820457 185.78855 39.878906 186.32617 C 39.908131 186.59498 39.942672 186.83635 40.007812 187.08008 C 40.072953 187.32381 40.018987 187.64718 40.650391 188.01172 C 41.281791 188.37626 41.533697 188.16897 41.777344 188.10352 C 42.02099 188.03806 42.248686 187.94699 42.496094 187.83789 C 42.990909 187.6197 43.552646 187.32291 44.113281 187.01172 C 45.234552 186.38935 46.397414 185.67418 46.546875 185.58789 C 46.696303 185.50162 47.896469 184.85127 48.996094 184.19141 C 49.545906 183.86148 50.085118 183.5245 50.521484 183.20508 C 50.739668 183.04536 50.930869 182.89312 51.109375 182.71484 C 51.287881 182.53657 51.595703 182.42244 51.595703 181.69336 C 51.595703 180.96428 51.287881 180.8482 51.109375 180.66992 C 50.930869 180.49164 50.739667 180.34135 50.521484 180.18164 C 50.085118 179.86221 49.545906 179.52524 48.996094 179.19531 C 47.896469 178.53545 46.696305 177.8851 46.546875 177.79883 C 46.397459 177.71256 45.234551 176.99737 44.113281 176.375 C 43.552646 176.06381 42.990909 175.76702 42.496094 175.54883 C 42.248686 175.43973 42.02099 175.34865 41.777344 175.2832 z M 41.966797 177.6582 C 42.308463 177.82274 42.673303 178.00056 43.083984 178.22852 C 44.146724 178.8184 45.167204 179.45052 45.486328 179.63477 C 45.805437 179.819 46.864026 180.38825 47.90625 181.01367 C 48.308446 181.25502 48.643923 181.47994 48.957031 181.69336 C 48.643923 181.90678 48.308446 182.1317 47.90625 182.37305 C 46.864026 182.99846 45.80544 183.56772 45.486328 183.75195 C 45.16725 183.93618 44.146723 184.56832 43.083984 185.1582 C 42.673304 185.38616 42.308462 185.56398 41.966797 185.72852 C 41.938494 185.35052 41.912218 184.94583 41.904297 184.47656 C 41.883782 183.26126 41.921875 182.06184 41.921875 181.69336 C 41.921875 181.32488 41.883782 180.12546 41.904297 178.91016 C 41.912218 178.44089 41.938494 178.0362 41.966797 177.6582 z "
         id="path845" />
      <path
         style="color:#000000;font-style:normal;font-variant:normal;font-weight:normal;font-stretch:normal;font-size:medium;line-height:normal;font-family:sans-serif;font-variant-ligatures:normal;font-variant-position:normal;font-variant-caps:normal;font-variant-numeric:normal;font-variant-alternates:normal;font-variant-east-asian:normal;font-feature-settings:normal;font-variation-settings:normal;text-indent:0;text-align:start;text-decoration:none;text-decoration-line:none;text-decoration-style:solid;text-decoration-color:#000000;letter-spacing:normal;word-spacing:normal;text-transform:none;writing-mode:lr-tb;direction:ltr;text-orientation:mixed;dominant-baseline:auto;baseline-shift:baseline;text-anchor:start;white-space:normal;shape-padding:0;shape-margin:0;inline-size:0;clip-rule:nonzero;display:inline;overflow:visible;visibility:visible;isolation:auto;mix-blend-mode:normal;color-interpolation:sRGB;color-interpolation-filters:linearRGB;solid-color:#000000;solid-opacity:1;vector-effect:none;fill:#ffffff;fill-opacity:1;fill-rule:nonzero;stroke:none;stroke-width:2.12095;stroke-linecap:butt;stroke-linejoin:miter;stroke-miterlimit:4;stroke-dasharray:none;stroke-dashoffset:0;stroke-opacity:1.0;paint-order:markers stroke fill;color-rendering:auto;image-rendering:auto;shape-rendering:auto;text-rendering:auto;enable-background:accumulate;stop-color:#000000;stop-opacity:1;"
         d="m 50.534443,181.6933 c 0,0.54102 -4.049429,2.70581 -4.517969,2.97632 -0.468539,0.27052 -4.368018,2.69503 -4.836558,2.42452 -0.468539,-0.27051 -0.31859,-4.85982 -0.31859,-5.40084 0,-0.54102 -0.149949,-5.13033 0.31859,-5.40084 0.46854,-0.27051 4.368019,2.154 4.836559,2.42451 0.468539,0.27051 4.517968,2.43531 4.517968,2.97633 z"
         id="path847" />
    </g>
  </g>
</svg>

<svg xmlns="http://www.w3.org/2000/svg" xmlns:xlink="http://www.w3.org/1999/xlink" width="110" height="110" viewBox="0 0 29.104 29.104"><defs><linearGradient xlink:href="#a" id="c" x1="71.312" x2="36.902" y1="14.293" y2="78.063" gradientTransform="matrix(1.09803 0 0 1.09815 -28.98 155.248)" gradientUnits="userSpaceOnUse"/><linearGradient id="a"><stop offset="0" style="stop-color:#f43cdd;stop-opacity:.99607843"/><stop offset="1" style="stop-color:#d0c068;stop-opacity:1"/></linearGradient><linearGradient xlink:href="#b" id="d" x1="69.821" x2="55.547" y1="16.022" y2="36.762" gradientTransform="matrix(1.09803 0 0 1.09815 -28.98 155.248)" gradientUnits="userSpaceOnUse"/><linearGradient id="b"><stop offset="0" style="stop-color:silver;stop-opacity:.99607843"/><stop offset="1" style="stop-color:#858585;stop-opacity:1"/></linearGradient></defs><g transform="translate(-22.869 -174.74)"><ellipse cx="37.418" cy="189.29" rx="13.383" ry="13.385" style="display:inline;fill:url(#c);fill-opacity:1;stroke:none;stroke-width:2.92119;stroke-linecap:butt;stroke-linejoin:miter;stroke-miterlimit:9.5;stroke-dasharray:none;stroke-opacity:1;font-variation-settings:normal;opacity:1;vector-effect:none;stroke-dashoffset:0;-inkscape-stroke:none;stop-color:#000;stop-opacity:1"/><ellipse cx="37.418" cy="189.29" rx="13.383" ry="13.385" style="display:inline;fill:url(#d);fill-opacity:1;stroke:none;stroke-width:2.92119;stroke-linecap:butt;stroke-linejoin:miter;stroke-miterlimit:9.5;stroke-dasharray:none;stroke-opacity:1"/><circle cx="37.418" cy="189.29" r="4.643" style="display:inline;fill:#313131;fill-opacity:1;stroke:none;stroke-width:.94436;stroke-linecap:butt;stroke-linejoin:miter;stroke-miterlimit:9.5;stroke-dasharray:none;stroke-opacity:1"/><circle cx="37.418" cy="189.29" r=".78" style="display:inline;fill:#fff;fill-opacity:1;stroke:none;stroke-width:2.92119;stroke-linecap:butt;stroke-linejoin:miter;stroke-miterlimit:9.5;stroke-dasharray:none;stroke-opacity:1"/><path d="M46.757 189.437a9.34 9.34 0 0 1-5.377 8.458" style="display:inline;fill:none;fill-opacity:1;stroke:#fff;stroke-width:5.32974;stroke-linecap:butt;stroke-linejoin:miter;stroke-miterlimit:12.4;stroke-dasharray:none;stroke-opacity:.376289"/><path d="M-28.02-189.26a9.34 9.34 0 0 1-5.377 8.458" style="display:inline;fill:none;fill-opacity:1;stroke:#fff;stroke-width:5.32974;stroke-linecap:butt;stroke-linejoin:miter;stroke-miterlimit:12.4;stroke-dasharray:none;stroke-opacity:.376289" transform="scale(-1)"/><path d="M37.423 175.913a13.383 13.385 0 0 0-13.384 13.385 13.383 13.385 0 0 0 .008.215 13.383 13.385 0 0 1 13.376-13.233 13.383 13.385 0 0 1 13.376 13.17 13.383 13.385 0 0 0 .008-.152 13.383 13.385 0 0 0-13.384-13.385" style="display:inline;opacity:.187;fill:#fef2fd;fill-opacity:1;stroke:none;stroke-width:2.92119;stroke-linecap:butt;stroke-linejoin:miter;stroke-miterlimit:9.5;stroke-dasharray:none;stroke-opacity:1"/><path d="M50.793 189.054a13.383 13.385 0 0 1-13.375 13.215 13.383 13.385 0 0 1-13.374-13.146 13.383 13.385 0 0 0-.009.17 13.383 13.385 0 0 0 13.383 13.384 13.383 13.385 0 0 0 13.383-13.384 13.383 13.385 0 0 0-.008-.24" style="display:inline;fill:#000;fill-opacity:.0912281;stroke:none;stroke-width:2.92119;stroke-linecap:butt;stroke-linejoin:miter;stroke-miterlimit:9.5;stroke-dasharray:none;stroke-opacity:1"/><g style="opacity:1"><path d="M41.777 175.283c-.243-.065-.495-.273-1.127.092-.631.365-.577.688-.642.932a5 5 0 0 0-.13.754 21 21 0 0 0-.093 1.812c-.021 1.282.016 2.648.016 2.82 0 .173-.037 1.538-.016 2.82.011.642.035 1.276.094 1.813.03.269.064.51.129.754s.011.567.642.932c.632.364.884.157 1.127.092.244-.066.472-.157.72-.266a21 21 0 0 0 1.616-.826c1.122-.623 2.284-1.338 2.434-1.424s1.35-.737 2.45-1.397c.549-.33 1.088-.667 1.524-.986.219-.16.41-.312.588-.49.179-.178.487-.293.487-1.022s-.308-.845-.487-1.023a5 5 0 0 0-.588-.488c-.436-.32-.975-.657-1.525-.987-1.1-.66-2.3-1.31-2.45-1.396-.149-.086-1.311-.802-2.433-1.424a21 21 0 0 0-1.617-.826c-.247-.11-.475-.2-.719-.266m.19 2.375c.341.165.706.343 1.117.57 1.063.59 2.083 1.223 2.402 1.407.32.184 1.378.753 2.42 1.379.402.241.738.466 1.051.68a21 21 0 0 1-1.05.68c-1.043.624-2.102 1.194-2.42 1.378-.32.184-1.34.816-2.403 1.406-.41.228-.776.406-1.117.57a21 21 0 0 1-.063-1.251c-.02-1.216.018-2.415.018-2.784s-.038-1.568-.018-2.783c.008-.47.034-.874.063-1.252" style="color:#000;font-style:normal;font-variant:normal;font-weight:400;font-stretch:normal;font-size:medium;line-height:normal;font-family:sans-serif;font-variant-ligatures:normal;font-variant-position:normal;font-variant-caps:normal;font-variant-numeric:normal;font-variant-alternates:normal;font-variant-east-asian:normal;font-feature-settings:normal;font-variation-settings:normal;text-indent:0;text-align:start;text-decoration:none;text-decoration-line:none;text-decoration-style:solid;text-decoration-color:#000;letter-spacing:normal;word-spacing:normal;text-transform:none;writing-mode:lr-tb;direction:ltr;text-orientation:mixed;dominant-baseline:auto;baseline-shift:baseline;text-anchor:start;white-space:normal;shape-padding:0;shape-margin:0;inline-size:0;clip-rule:nonzero;display:inline;overflow:visible;visibility:visible;isolation:auto;mix-blend-mode:normal;color-interpolation:sRGB;color-interpolation-filters:linearRGB;solid-color:#000;solid-opacity:1;vector-effect:none;fill:#424242;fill-opacity:1;fill-rule:nonzero;stroke:none;stroke-width:2.12095;stroke-linecap:butt;stroke-linejoin:miter;stroke-miterlimit:4;stroke-dasharray:none;stroke-dashoffset:0;stroke-opacity:1;paint-order:markers stroke fill;color-rendering:auto;image-rendering:auto;shape-rendering:auto;text-rendering:auto;stop-color:#000;stop-opacity:1" transform="matrix(1.22396 0 0 1.12619 -11.222 -22.452)"/><path d="M50.534 181.693c0 .541-4.049 2.706-4.518 2.977s-4.368 2.695-4.836 2.424c-.469-.27-.319-4.86-.319-5.4 0-.542-.15-5.131.319-5.402s4.368 2.154 4.836 2.425c.469.27 4.518 2.435 4.518 2.976" style="color:#000;font-style:normal;font-variant:normal;font-weight:400;font-stretch:normal;font-size:medium;line-height:normal;font-family:sans-serif;font-variant-ligatures:normal;font-variant-position:normal;font-variant-caps:normal;font-variant-numeric:normal;font-variant-alternates:normal;font-variant-east-asian:normal;font-feature-settings:normal;font-variation-settings:normal;text-indent:0;text-align:start;text-decoration:none;text-decoration-line:none;text-decoration-style:solid;text-decoration-color:#000;letter-spacing:normal;word-spacing:normal;text-transform:none;writing-mode:lr-tb;direction:ltr;text-orientation:mixed;dominant-baseline:auto;baseline-shift:baseline;text-anchor:start;white-space:normal;shape-padding:0;shape-margin:0;inline-size:0;clip-rule:nonzero;display:inline;overflow:visible;visibility:visible;isolation:auto;mix-blend-mode:normal;color-interpolation:sRGB;color-interpolation-filters:linearRGB;solid-color:#000;solid-opacity:1;vector-effect:none;fill:#fff;fill-opacity:1;fill-rule:nonzero;stroke:none;stroke-width:2.12095;stroke-linecap:butt;stroke-linejoin:miter;stroke-miterlimit:4;stroke-dasharray:none;stroke-dashoffset:0;stroke-opacity:1;paint-order:markers stroke fill;color-rendering:auto;image-rendering:auto;shape-rendering:auto;text-rendering:auto;stop-color:#000;stop-opacity:1" transform="matrix(1.22396 0 0 1.12619 -11.222 -22.452)"/></g></g></svg>
